assets/img/star.svg

<svg fill="none" height="112" viewBox="0 0 111 112" width="111" xmlns="http://www.w3.org/2000/svg"><path d="m55.5.00732422 2.0635 13.97097578c3.0157 20.4173 19.0482 36.4498 39.4656 39.4655l13.9709 2.0635-13.9709 2.0636c-20.4174 3.0156-36.4499 19.0482-39.4656 39.4655l-2.0635 13.9706-2.0635-13.9706c-3.0157-20.4173-19.0482-36.4499-39.4656-39.4655l-13.9709-2.0636 13.9709-2.0635c20.4174-3.0157 36.4499-19.0482 39.4656-39.4656z" fill="#fff"/></svg>

<svg width="111" height="112" viewBox="0 0 111 112" fill="none" xmlns="http://www.w3.org/2000/svg">
<path d="M55.5 0.00732422L57.5635 13.9783C60.5792 34.3956 76.6117 50.4281 97.0291 53.4438L111 55.5073L97.0291 57.5709C76.6117 60.5865 60.5792 76.6191 57.5635 97.0364L55.5 111.007L53.4365 97.0364C50.4208 76.6191 34.3883 60.5865 13.9709 57.5709L0 55.5073L13.9709 53.4438C34.3883 50.4281 50.4208 34.3956 53.4365 13.9782L55.5 0.00732422Z" fill="white"/>
</svg>
